X:145
T:Eight More Miles To Louisville
C:Jimmy Gaudreau
N:Transcribed by Larry Tanner
R:bluegrass
L:1/8
Q:1/4=210
M:4/4
K:G
z4 zD EF | "G"GD FG "C"AF GA | "G"BG AB "C"c2 Ac | "G"BA GB "D"AG FA | "G"G4 zD EF | 
"G"GD FG "C"AF GA | "G"BG AB "C"c4 | "G"d2 de "C"dc B2 | "D"AB GA F4 | "C"c2 cd ed c2 | 
"G"Bc ^cd BG E2 | "G"dB d2 ^c^A c2 | "D7"c4 cD EF | "G"GE FG "C"AF GA | "G"BG AB "C"c2 Ac | 
"G"BA GB "D"AG FA | "G"G4 fg ^ga | "G"fd Bc "C"d2 c2 | "G"BA GB "C"AG FD | "G"FE FE "C"CE DC | 
"G"FE DF Ad ^cd | "G"zB c^c "C"df ^gb | "G"b2 b2 "C"Bd2d | "G"gf dB "C"ed cB | 
"D"dc Bc BA GA | "C"c2 cd ed cA | "G"Bc ^cd BG E2 | "G"zf g2 "F#"f2 e2 | "D7"dc Ac BA GF | 
"G"GG zG "C"GA GA | "G"B2 AB "D"c3A | "G"BB GB "C"AG FA | "G"G8 | 


